X:1
T:Title
%%score { ( 1 3 ) | ( 2 4 ) }
L:1/8
Q:1/4=81
M:3/8
K:G
V:1 treble nm="Grand Piano"
V:3 treble 
V:2 bass 
V:4 bass 
V:1
 BBB | AAA | GGG | F3 | ccc | AAA | FFG | A3 | [Dd][Dc][DB] | cAB | cBA | [DB]3 | %12
w: E.~P.~Tate * *||||||||||||
 [G,D][G,DE][A,DF] | [G,DG][G,B,G][Ec] | BB>A |[M:11/8] [B,G]3 z z z z z z z2 |[M:3/8] [CG]3 | %17
w: |||||
 [B,G]3 |] %18
w: |
V:2
 [G,D][G,D][G,D] | [G,CD][G,CD][G,CD] | [G,B,D][G,B,D][G,B,D] | [D,A,D]3 | [D,F,D][D,F,D][D,F,D] | %5
 [D,F,D][D,F,D][D,F,D] | [D,A,D][D,A,D][E,A,^C] | D3 | [B,,G,][A,,F,][G,,G,] | %9
 [D,F,D][D,F,D][D,G,D] | [D,A,D][D,G,D][D,F,D] | [G,,G,]3 | B,,C,C, | B,,E,[C,G,] | %14
 [D,G,D][D,G,D]>[D,F,C] |[M:11/8] [G,,G,]3 z z z z z z z2 |[M:3/8] [C,E,]3 | [G,,D,G,]3 |] %18
V:3
 x3 | x3 | x3 | x3 | x3 | x3 | x3 | z F,2 | x3 | x3 | x3 | x3 | x3 | x3 | x3 |[M:11/8] x11 | %16
[M:3/8] x3 | x3 |] %18
V:4
 x3 | x3 | x3 | x3 | x3 | x3 | x3 | [F,A,]D,C, | x3 | x3 | x3 | x3 | x3 | x3 | x3 |[M:11/8] x11 | %16
[M:3/8] x3 | x3 |] %18

